X:75
T: Princes qui en main tenez
S: irtrad-l, 8/94, Millie Niss
A: Brittany (France)
H: Transcribed by Millie Niss
H: from the 1st track of the Tri Yann album, "La decouverte ou
H: l'ignorance"
H: (The song has lyrics on the album, but the lyrics are not
H: traditional.)
L: 1/8
M: 6/8
K: G
D2 G EFG|A2 AB AA|D2 G EFG|A3 GG2:|
BBA GAA|BBA GAA|cBA GAA|cBA GAA|BAG BAG|GcB AGA|D2 G EFG|A3 GG
